docs/.gitbook/assets/icon-bookmark-16@light.svg

<svg width="32" height="32" viewBox="0 0 16 16" fill="none" xmlns="http://www.w3.org/2000/svg">
<rect x="0" y="0" width="16" height="16" fill="#fff"/>
<path fill-rule="evenodd" clip-rule="evenodd" d="M5.75 2.5C5.05964 2.5 4.5 3.05964 4.5 3.75V12.6608L7.52322 10.1711C7.80016 9.94298 8.19984 9.94298 8.47678 10.1711L11.5 12.6608V3.75C11.5 3.05964 10.9404 2.5 10.25 2.5H5.75ZM3 3.75C3 2.23122 4.23122 1 5.75 1H10.25C11.7688 1 13 2.23122 13 3.75V14.25C13 14.5402 12.8326 14.8044 12.5701 14.9283C12.3076 15.0521 11.9973 15.0134 11.7732 14.8289L8 11.7216L4.22678 14.8289C4.00275 15.0134 3.69238 15.0521 3.42991 14.9283C3.16744 14.8044 3 14.5402 3 14.25V3.75Z" fill="#000"/>
</svg>

<svg xmlns="http://www.w3.org/2000/svg" width="32" height="32" fill="none" viewBox="0 0 16 16"><path fill="#fff" d="M0 0h16v16H0z"/><path fill="#000" fill-rule="evenodd" d="M5.75 2.5c-.69 0-1.25.56-1.25 1.25v8.91l3.023-2.489a.75.75 0 0 1 .954 0l3.023 2.49V3.75c0-.69-.56-1.25-1.25-1.25zM3 3.75A2.75 2.75 0 0 1 5.75 1h4.5A2.75 2.75 0 0 1 13 3.75v10.5a.75.75 0 0 1-1.227.579L8 11.722l-3.773 3.107A.75.75 0 0 1 3 14.25z" clip-rule="evenodd"/></svg>
